public/icons/safe_icon.svg

<svg width="330" height="330" viewBox="0 0 330 330" fill="none" xmlns="http://www.w3.org/2000/svg">
<path d="M41.4812 20.3948L42.0704 20.3744C60.3361 19.8016 78.7753 20.3005 97.0584 20.3028L203.062 20.312L259.263 20.2301C269.771 20.2129 281.029 19.41 291.439 20.9088C297.239 21.7437 302.477 24.4885 306.71 28.5275C313.297 34.8142 314.658 43.1958 314.785 51.9704C315.484 100.385 314.71 148.897 314.768 197.325L314.808 245.789C314.808 254.912 315.475 264.583 314.153 273.593C313.175 280.257 311.205 284.741 306.452 289.544C299.098 296.977 289.977 297.997 280.081 297.964C279.115 304.267 279.654 315.312 275.04 319.974C272.456 322.585 269.145 322.479 265.755 322.459C258.882 322.365 239.389 324.546 234.59 320.762C229.243 316.546 228.968 304.39 227.955 297.955L101.794 297.929C100.923 304.58 101.218 313.377 97.7769 319.278C96.1501 320.66 94.4762 321.313 92.4293 321.785C85.7524 323.328 59.878 323.78 54.7481 320.051C50.7461 317.142 50.1647 302.543 49.5984 297.955C41.3579 298.136 33.7744 297.321 26.9108 292.301C20.4433 287.57 17.2553 281.398 16.1174 273.62C14.3702 261.677 15.3231 248.626 15.3156 236.55L15.2921 171.661L15.3061 89.2978C15.3129 75.2355 14.4308 60.509 15.6309 46.512C16.1289 40.7053 16.9428 35.9674 20.5271 31.2222C25.6967 24.3781 33.2439 21.4883 41.4812 20.3948Z" fill="#080807"/>
<path d="M39.3358 31.1241C52.1431 30.4772 65.2238 30.9808 78.0612 30.9817L151.235 30.998L238.163 30.9635C253.65 30.9445 269.288 30.4935 284.761 30.998C287.936 31.1023 291.133 31.1586 294.107 32.3871C298.175 34.0683 301.132 36.6206 302.773 40.8014C304.22 44.4887 304.611 48.5344 304.782 52.4584C305.285 64.0765 304.826 75.9095 304.795 87.5538L304.741 152.432L304.809 226.327C304.814 239.442 305.239 252.715 304.668 265.806C304.501 269.62 304.29 273.695 302.739 277.235C300.518 282.302 296.19 284.976 291.216 286.845C281.64 289.168 268.871 287.714 258.974 287.71L198.465 287.67L97.5292 287.705C80.1788 287.714 62.6198 288.352 45.3057 287.601C41.8066 287.449 38.8849 287.166 35.695 285.603C31.1949 283.397 28.37 279.948 26.806 275.201C23.4422 264.992 25.3893 234.321 25.4075 221.986L25.3894 154.986L25.3665 85.6485C25.3625 73.4716 24.9245 61.1386 25.4626 48.9808C25.6053 45.7553 25.8819 42.6795 27.3779 39.7635C29.919 34.8087 34.266 32.7436 39.3358 31.1241Z" fill="#FEFEFE"/>
<path d="M63.6571 53.6399C66.526 53.3586 69.4439 53.2498 72.3264 53.228L201.974 53.2525L242.822 53.2035C250.367 53.1971 258.584 52.6101 266.038 53.737C269.891 54.3195 273.813 56.7374 276.534 59.4956C279.45 62.4516 281.619 66.6026 282.208 70.7272C283.214 77.7833 282.785 85.2213 282.77 92.3437L282.687 127.466L282.736 237.207C282.659 245.438 282.665 253.786 276.214 259.922C269.923 265.906 261.035 265.386 252.997 265.294L125.703 265.319L88.3839 265.323C80.944 265.323 73.1929 265.777 65.8056 264.83C61.1938 264.239 57.9008 263.222 54.5743 259.828C48.3898 253.518 49.0014 244.483 49.1209 236.332C48.9642 236.324 48.8074 236.318 48.651 236.307C48.3904 236.289 48.1305 236.264 47.87 236.244C46.6404 236.151 45.2738 236.17 44.1706 235.561C42.9874 234.907 42.4985 234.274 42.2267 232.939C40.9298 226.57 40.9831 196.035 41.7935 189.193C42.0315 187.183 42.538 184.614 43.7307 182.951C44.9067 181.31 45.8008 181.224 47.6432 180.872C48.4867 180.096 48.6895 179.46 48.9154 178.371C49.4968 175.566 49.1064 138.577 48.7588 138.169C47.3222 136.48 43.9276 137.417 42.2862 134.452C40.6999 131.585 41.2496 88.6319 42.5421 84.5427C43.982 82.7126 46.2704 82.2435 48.4013 81.5159C50.2988 75.2963 48.5357 67.9617 51.5219 62.1187C53.7892 57.6819 59.2014 55.1986 63.6571 53.6399Z" fill="#080807"/>
<path d="M65.9805 63.8397C106.882 62.5041 148.195 63.6601 189.141 63.6664L235.412 63.6065C244.14 63.5757 253.189 63.0195 261.862 63.8206C264.723 64.0847 266.889 64.8041 269.099 66.7485C272.485 69.7263 272.447 75.0984 272.569 79.2956C273.576 114.031 272.524 149.077 272.486 183.844L272.637 222.423C272.671 229.115 273.112 236.138 272.484 242.793C272.187 245.934 271.328 250.403 268.945 252.665C265.007 256.402 256.501 255.275 251.465 255.178L118.792 255.094C107.941 255.107 75.2531 256.726 66.6437 254.763C63.9472 254.148 62.0473 252.91 60.6093 250.49C58.1864 246.411 58.2992 241.164 59.5368 236.736C61.2743 236.279 63.3747 235.816 64.6486 234.445C65.751 233.26 66.2445 231.426 66.4369 229.861C66.8588 226.427 66.1837 222.434 66.1919 218.925C66.2101 209.907 66.4922 200.871 66.3697 191.857C66.1765 177.643 64.2521 185.102 59.0233 180.027C58.762 166.539 57.5115 151.777 59.2238 138.449C60.6528 137.986 62.1326 137.555 63.4591 136.84C64.8545 136.087 65.5586 135.623 65.9633 134.005C66.8143 130.602 66.651 87.5593 65.4407 84.7766C64.0498 81.5775 60.5321 82.4385 59.1657 80.1439C57.6768 77.6434 58.8003 72.2295 59.6702 69.5729C60.6782 66.4908 63.2305 65.0872 65.9805 63.8397Z" fill="#FEFEFE"/>
<path d="M160.795 99.3971C194.376 97.0553 223.536 122.295 226.044 155.871C228.551 189.449 203.462 218.741 169.906 221.415C136.115 224.107 106.58 198.798 104.055 164.985C101.53 131.174 126.978 101.756 160.795 99.3971Z" fill="#080807"/>
<path d="M160.054 108.915C161.938 112.131 159.257 117.393 161.657 120.684C162.742 122.172 163.824 122.724 165.593 123.075C166.852 122.686 167.581 122.589 168.523 121.621C171.546 118.524 170.568 112.84 170.496 108.786C179.534 110.695 187.211 113.815 194.998 118.726C192.252 121.492 188.415 124.587 188.432 128.862C188.44 130.777 188.955 131.392 190.144 132.73C191.081 133.042 191.966 133.27 192.963 133.119C197.192 132.474 199.573 128.45 202.005 125.329C209.467 133.922 212.798 142.685 215.103 153.661C212.493 153.587 209.597 153.3 207.017 153.709C204.544 154.101 202.738 155.492 201.329 157.484C201.182 159.056 201.005 159.84 202.173 161.131C205.444 164.745 210.823 163.862 215.206 163.765C213.243 176.045 209.654 185.069 202.351 195.153C200.547 193.104 198.523 190.412 196.267 188.892C194.3 187.567 192.033 187.049 189.72 187.52C188.504 188.641 188.117 189.115 188.14 190.842C188.206 195.474 192.181 198.761 195.186 201.784C187.627 207.377 179.744 210.417 170.524 211.978C170.585 208.511 171.212 203.85 169.567 200.71C168.475 198.626 167.455 197.934 165.328 197.362C164.318 197.73 163.621 198.003 162.902 198.836C159.696 202.552 160.491 207.548 160.58 212.109C150.848 210.207 143.583 207.375 135.371 201.871C137.207 199.895 139.919 197.466 141.057 195.038C142.05 192.921 141.992 190.881 141.126 188.76C139.739 187.619 139.107 187.19 137.181 187.313C133.109 187.573 130.214 192.127 127.961 195.009C120.395 185.201 117.076 175.943 115.336 163.778C117.931 163.845 120.864 164.14 123.418 163.649C125.854 163.179 127.447 161.887 128.871 159.93C129.05 158.184 129.092 157.498 127.844 156.151C124.764 152.833 119.335 153.603 115.227 153.671C117.243 142.127 120.911 133.659 128.461 124.655C130.121 126.881 131.926 129.814 134.267 131.367C136.079 132.568 137.746 132.877 139.854 132.496C141.229 131.307 141.795 130.825 141.912 128.864C142.175 124.466 138.165 121.004 135.436 118.046C143.467 113.369 150.861 110.432 160.054 108.915Z" fill="#FEFEFE"/>
<path d="M162.855 135.019C176.814 133.786 189.165 144.021 190.55 157.969C191.936 171.917 181.84 184.382 167.911 185.921C158.765 186.932 149.78 182.948 144.386 175.49C138.992 168.033 138.02 158.25 141.842 149.877C145.663 141.503 153.689 135.829 162.855 135.019Z" fill="#080807"/>
<path d="M162.286 145.212C170.633 143.652 178.691 149.066 180.404 157.385C182.117 165.704 176.854 173.863 168.57 175.729C163.073 176.968 157.337 175.141 153.568 170.952C149.799 166.764 148.584 160.867 150.392 155.529C152.199 150.191 156.748 146.246 162.286 145.212Z" fill="#FEFEFE"/>
<path d="M252.692 126.12C254.551 126.389 255.701 126.766 257.25 127.84C258.026 128.784 258.473 129.671 258.67 130.893C259.734 137.5 258.892 145.533 258.893 152.265C258.894 163.674 259.512 175.538 258.688 186.899C258.536 188.98 257.015 190.085 255.561 191.397C253.534 191.015 251.974 190.767 250.472 189.245C248.058 186.798 249.058 143.405 249.122 136.872C249.171 131.913 249.007 129.726 252.692 126.12Z" fill="#080807"/>
<path d="M51.6891 91.9752C53.5822 91.9843 55.2964 91.8074 56.938 92.9052C58.3365 104.045 57.2635 116.47 57.2022 127.751C55.446 127.757 53.3957 127.941 52.0185 126.848C50.5194 115.757 51.6883 103.249 51.6891 91.9752Z" fill="#FEFEFE"/>
<path d="M51.7247 190.901C53.506 190.863 54.8835 190.889 56.5868 191.439C58.5683 195.965 57.2405 220.107 57.2023 226.366C55.4768 226.437 53.8229 226.278 52.1065 226.106C50.7055 214.841 51.7214 202.309 51.7247 190.901Z" fill="#FEFEFE"/>
<path d="M59.7559 297.961L91.6439 297.958L89.7168 311.252C87.2726 312.895 66.586 311.959 61.7637 311.96C61.1204 307.29 60.4509 302.624 59.7559 297.961Z" fill="#FEFEFE"/>
<path d="M238.337 297.939L269.783 297.968C269.106 302.559 268.649 307.209 268.095 311.819C258.968 312.152 249.693 311.883 240.553 311.911C239.721 307.278 239.072 302.589 238.337 297.939Z" fill="#FEFEFE"/>
</svg>

<svg xmlns="http://www.w3.org/2000/svg" width="330" height="330" fill="none" viewBox="0 0 330 330"><path fill="#080807" d="m41.481 20.395.59-.02c18.265-.573 36.704-.075 54.987-.072l106.004.009 56.201-.082c10.508-.017 21.766-.82 32.176.679 5.8.835 11.038 3.58 15.271 7.619 6.587 6.286 7.948 14.668 8.075 23.442.699 48.415-.075 96.927-.017 145.355l.04 48.464c0 9.123.667 18.794-.655 27.804-.978 6.664-2.948 11.148-7.701 15.951-7.354 7.433-16.475 8.453-26.371 8.42-.966 6.303-.427 17.348-5.041 22.01-2.584 2.611-5.895 2.505-9.285 2.485-6.873-.094-26.366 2.087-31.165-1.697-5.347-4.216-5.622-16.372-6.635-22.807l-126.161-.026c-.871 6.651-.576 15.448-4.017 21.349-1.627 1.382-3.3 2.035-5.348 2.507-6.677 1.543-32.551 1.995-37.68-1.734-4.003-2.909-4.584-17.508-5.15-22.096-8.241.181-15.825-.634-22.688-5.654-6.468-4.731-9.656-10.903-10.794-18.681-1.747-11.943-.794-24.994-.801-37.07l-.024-64.889.014-82.363c.007-14.062-.875-28.789.325-42.786.498-5.807 1.312-10.545 4.896-15.29 5.17-6.844 12.717-9.734 20.954-10.827"/><path fill="#fefefe" d="M39.336 31.124c12.807-.647 25.888-.143 38.725-.142l73.174.016 86.928-.035c15.487-.018 31.125-.47 46.598.035 3.175.104 6.372.16 9.346 1.39 4.068 1.68 7.025 4.233 8.666 8.413 1.447 3.688 1.838 7.733 2.009 11.657.503 11.618.044 23.451.013 35.096l-.054 64.878.068 73.895c.005 13.115.43 26.388-.141 39.479-.167 3.814-.378 7.889-1.929 11.429-2.221 5.067-6.549 7.741-11.523 9.61-9.576 2.323-22.345.869-32.242.865l-60.509-.04-100.936.035c-17.35.009-34.91.647-52.223-.104-3.5-.152-6.421-.435-9.611-1.998-4.5-2.206-7.325-5.655-8.889-10.402-3.364-10.209-1.417-40.88-1.399-53.215l-.018-67-.023-69.337c-.003-12.177-.442-24.51.097-36.668.142-3.226.419-6.302 1.915-9.218 2.541-4.954 6.888-7.02 11.958-8.639"/><path fill="#080807" d="M63.657 53.64c2.869-.281 5.787-.39 8.67-.412l129.647.024 40.848-.049c7.545-.006 15.762-.593 23.216.534 3.853.582 7.775 3 10.496 5.759 2.916 2.956 5.085 7.107 5.674 11.231 1.006 7.056.577 14.494.562 21.617l-.083 35.122.049 109.741c-.077 8.231-.071 16.579-6.522 22.715-6.291 5.984-15.179 5.464-23.217 5.372l-127.294.025-37.32.004c-7.439 0-15.19.454-22.577-.493-4.612-.591-7.905-1.608-11.232-5.002-6.184-6.31-5.573-15.345-5.453-23.496q-.236-.01-.47-.025c-.26-.018-.52-.043-.781-.063-1.23-.093-2.596-.074-3.7-.683-1.183-.654-1.672-1.287-1.943-2.622-1.297-6.369-1.244-36.904-.433-43.746.238-2.01.744-4.579 1.937-6.242 1.176-1.641 2.07-1.727 3.912-2.079.844-.776 1.047-1.412 1.272-2.501.582-2.805.191-39.794-.156-40.202-1.437-1.689-4.831-.752-6.473-3.717-1.586-2.867-1.036-45.82.256-49.91 1.44-1.83 3.728-2.299 5.86-3.026 1.897-6.22.134-13.554 3.12-19.397 2.267-4.437 7.68-6.92 12.135-8.48"/><path fill="#fefefe" d="M65.98 63.84c40.902-1.336 82.215-.18 123.161-.174l46.271-.06c8.728-.03 17.777-.587 26.45.215 2.861.264 5.027.983 7.237 2.928 3.386 2.977 3.348 8.35 3.47 12.547 1.007 34.735-.045 69.781-.083 104.548l.151 38.579c.034 6.692.475 13.715-.153 20.37-.297 3.141-1.156 7.61-3.539 9.872-3.938 3.737-12.444 2.61-17.48 2.513l-132.673-.084c-10.851.013-43.539 1.632-52.148-.331-2.697-.615-4.597-1.853-6.035-4.273-2.423-4.079-2.31-9.326-1.072-13.754 1.737-.457 3.838-.92 5.112-2.291 1.102-1.185 1.596-3.019 1.788-4.584.422-3.434-.253-7.427-.245-10.936.018-9.018.3-18.054.178-27.068-.194-14.214-2.118-6.755-7.347-11.83-.261-13.488-1.512-28.25.2-41.578 1.43-.463 2.91-.894 4.236-1.609 1.395-.753 2.1-1.217 2.504-2.835.851-3.403.688-46.446-.522-49.228-1.391-3.2-4.909-2.338-6.275-4.633-1.49-2.5-.366-7.915.504-10.571 1.008-3.082 3.56-4.486 6.31-5.733"/><path fill="#080807" d="M160.795 99.397c33.581-2.342 62.741 22.898 65.249 56.474 2.507 33.578-22.582 62.87-56.138 65.544-33.791 2.692-63.326-22.617-65.851-56.43-2.525-33.811 22.923-63.229 56.74-65.588"/><path fill="#fefefe" d="M160.054 108.915c1.884 3.216-.797 8.478 1.603 11.769 1.085 1.488 2.167 2.04 3.936 2.391 1.259-.389 1.988-.486 2.93-1.454 3.023-3.097 2.045-8.781 1.973-12.835 9.038 1.909 16.715 5.029 24.502 9.94-2.746 2.766-6.583 5.861-6.566 10.136.008 1.915.523 2.53 1.712 3.868.937.312 1.822.54 2.819.389 4.229-.645 6.61-4.669 9.042-7.79 7.462 8.593 10.793 17.356 13.098 28.332-2.61-.074-5.506-.361-8.086.048-2.473.392-4.279 1.783-5.688 3.775-.147 1.572-.324 2.356.844 3.647 3.271 3.614 8.65 2.731 13.033 2.634-1.963 12.28-5.552 21.304-12.855 31.388-1.804-2.049-3.828-4.741-6.084-6.261-1.967-1.325-4.234-1.843-6.547-1.372-1.216 1.121-1.603 1.595-1.58 3.322.066 4.632 4.041 7.919 7.046 10.942-7.559 5.593-15.442 8.633-24.662 10.194.061-3.467.688-8.128-.957-11.268-1.092-2.084-2.112-2.776-4.239-3.348-1.01.368-1.707.641-2.426 1.474-3.206 3.716-2.411 8.712-2.322 13.273-9.732-1.902-16.997-4.734-25.209-10.238 1.836-1.976 4.548-4.405 5.686-6.833.993-2.117.935-4.157.069-6.278-1.387-1.141-2.019-1.57-3.945-1.447-4.072.26-6.967 4.814-9.22 7.696-7.566-9.808-10.885-19.066-12.625-31.231 2.595.067 5.528.362 8.082-.129 2.436-.47 4.029-1.762 5.453-3.719.179-1.746.221-2.432-1.027-3.779-3.08-3.318-8.509-2.548-12.617-2.48 2.016-11.544 5.684-20.012 13.234-29.016 1.66 2.226 3.465 5.159 5.806 6.712 1.812 1.201 3.479 1.51 5.587 1.129 1.375-1.189 1.941-1.671 2.058-3.632.263-4.398-3.747-7.86-6.476-10.818 8.031-4.677 15.425-7.614 24.618-9.131"/><path fill="#080807" d="M162.855 135.019c13.959-1.233 26.31 9.002 27.695 22.95s-8.71 26.413-22.639 27.952a25.57 25.57 0 0 1-23.525-10.431 25.58 25.58 0 0 1 18.469-40.471"/><path fill="#fefefe" d="M162.286 145.212c8.347-1.56 16.405 3.854 18.118 12.173s-3.55 16.478-11.834 18.344a15.582 15.582 0 1 1-6.284-30.517"/><path fill="#080807" d="M252.692 126.12c1.859.269 3.009.646 4.558 1.72.776.944 1.223 1.831 1.42 3.053 1.064 6.607.222 14.64.223 21.372.001 11.409.619 23.273-.205 34.634-.152 2.081-1.673 3.186-3.127 4.498-2.027-.382-3.587-.63-5.089-2.152-2.414-2.447-1.414-45.84-1.35-52.373.049-4.959-.115-7.146 3.57-10.752"/><path fill="#fefefe" d="M51.69 91.975c1.892.01 3.606-.168 5.248.93 1.398 11.14.325 23.565.264 34.846-1.756.006-3.806.19-5.183-.903-1.5-11.091-.33-23.599-.33-34.873m.036 98.926c1.781-.038 3.158-.012 4.862.538 1.981 4.526.653 28.668.615 34.927-1.725.071-3.38-.088-5.096-.26-1.4-11.265-.385-23.797-.381-35.205m8.031 107.06 31.888-.003-1.927 13.294c-2.444 1.643-23.131.707-27.953.708q-.966-7.005-2.008-13.999m178.581-.022 31.446.029c-.677 4.591-1.134 9.241-1.688 13.851-9.127.333-18.402.064-27.542.092-.832-4.633-1.481-9.322-2.216-13.972"/></svg>
